X: 141
T: He's O'er the Hills That I Lo'e Dear
R: jig
B: RSCDS Graded 1 #14
N: Suggested tune for Berwick Johnnie
Z: arr. T. Traub, 2-26-2004
M: 6/8
L: 1/8
K: G
D |\
"G"DEG G2 G | "G"BAG "C"E2 G | "G"DEG G<dB | "D"BAG "G"G2 E |\
"G"DEG G2 G | "Em"BAG "C"E2 e | "G"d2 e "Em"dBG | "D"BAG "G"G2 ||
B |\
"G"d2 e dBG | "G"BAG "C"E2 e | "G"d2 e dBG | "D"BAG "G"G2 B |\
"Bm"d2 e "Em"dBG | "G"BAG "C"E2 G | "G"DEG G<dB | "D"BAG "G"G2 |]
